src/data/flags/yamagata.svg

<?xml version="1.0" encoding="UTF-8"?>
<svg xmlns="http://www.w3.org/2000/svg" width="600" height="400">
<rect width="600" height="400" fill="#006bbd"/>
<path d="M102,263.8 170.86801,130.6 235.62601,254.8 300,130.6 364.37401,254.8 429.13201,130.6l68.86795,133.2h-72l-24.036,-46.35 -23.964,46.35h-81l-24.036,-46.35 -23.964,46.35h-81L143.964,217.45 120,263.8h-18z" fill="#fff"/>
</svg>

<svg xmlns="http://www.w3.org/2000/svg" width="600" height="400"><path fill="#006bbd" d="M0 0h600v400H0z"/><path d="M102 263.8l68.868-133.2 64.758 124.2L300 130.6l64.374 124.2 64.758-124.2L498 263.8h-72l-24.036-46.35L378 263.8h-81l-24.036-46.35L249 263.8h-81l-24.036-46.35L120 263.8h-18z" fill="#fff"/></svg>
